X: 371
T: It's nae ay for want o'health the Ladies gang to Pannich.  a Reel.
R: reel
B: William Christie's "A Collection of Strathspeys, Reels, Hornpipes, Waltzes, &c."
S: https://digital.nls.uk/special-collections-of-printed-music/archive/120545033
Z: 2022 John Chambers <jc:trillian.mit.edu>
M: C|
L: 1/8
K: D
%%slurgraces yes
%%graceslurs yes
% = = = = = = = = = =
V: 1 staves=2
g |\
{fg}a>A A/A/A {c}TB>AGB | A/A/A (Tf>e) dBBg | {fg}a>A A/A/A {c}TB>AGB | A/A/A  (Tf>e) {c}d2d :| e | fdfa fdfa | {f}Te>def dBBg |
fdfa fdfa | {f}Te>def d/d/d ~d(e || f)dfa fdfa | {f}Te>def dBBg | {fg}a>A A/A/A {c}TB>AGB | A/A/A (Tf>e) {c}d2d |]
% = = = = = = = = = =
% Voice 2 preserves the staff layout in the book.
V: 2 clef=bass middle=d
z |\
d2f2 g2g2 | f2d2 g2G2 | d2f2 g2g2 | f2a2 d2d :| z | d'2d'2 d'2d'2 | a3f g2[g2G2] |
d'2d'2 d'2d'2 | a2A2 d2d2 || [d'2d2][d'2d2] [d'2d2][d'2d2] | a3f g2G2 | d2f2 g2g2 | f2a2 d2d |]
% = = = = = = = = = =
